src/images/account__icon-dark.svg

<svg xmlns="http://www.w3.org/2000/svg" fill="none" viewBox="0 0 26 30">
  <rect width="26" height="30" fill="#F9F9F9" rx="4"/>
  <path fill="#000" fill-rule="evenodd" d="M15.5 12c0 1.3807-1.1193 2.5-2.5 2.5s-2.5-1.1193-2.5-2.5 1.1193-2.5 2.5-2.5 2.5 1.1193 2.5 2.5Zm1.5 0c0 2.2091-1.7909 4-4 4-2.2091 0-4-1.7909-4-4 0-2.20914 1.7909-4 4-4 2.2091 0 4 1.79086 4 4Zm-6 5.25c-2.07107 0-3.75 1.6789-3.75 3.75v1h1.5v-1c0-1.2426 1.00736-2.25 2.25-2.25h4c1.2426 0 2.25 1.0074 2.25 2.25v1h1.5v-1c0-2.0711-1.6789-3.75-3.75-3.75h-4Z" clip-rule="evenodd"/>
</svg>

<svg width="26" height="30" viewBox="0 0 26 30" fill="none" xmlns="http://www.w3.org/2000/svg">
<rect width="26" height="30" rx="4" fill="#F9F9F9"/>
<path fill-rule="evenodd" clip-rule="evenodd" d="M15.5 12C15.5 13.3807 14.3807 14.5 13 14.5C11.6193 14.5 10.5 13.3807 10.5 12C10.5 10.6193 11.6193 9.5 13 9.5C14.3807 9.5 15.5 10.6193 15.5 12ZM17 12C17 14.2091 15.2091 16 13 16C10.7909 16 9 14.2091 9 12C9 9.79086 10.7909 8 13 8C15.2091 8 17 9.79086 17 12ZM11 17.25C8.92893 17.25 7.25 18.9289 7.25 21V22H8.75V21C8.75 19.7574 9.75736 18.75 11 18.75H15C16.2426 18.75 17.25 19.7574 17.25 21V22H18.75V21C18.75 18.9289 17.0711 17.25 15 17.25H11Z" fill="black"/>
</svg>
